!!!COM: Schiørring, Niels
!!!CDT: 1743-1798
!!!OPR@@DA: Choral-Bog
!!!ONM: 100
!!!OTL@@DA: Vreden din afvend, Herre Gud!
**kern	**fb	**kern	**kern	**kern	**kern	**kern	**kern	**kern
*part6	*part6	*part6	*part5	*part5	*part4	*part3	*part2	*part1
*staff8	*	*staff7	*staff6	*staff5	*staff4	*staff3	*staff2	*staff1
*clefF4	*	*clefC1	*clefF4	*clefC1	*clefF4	*clefC4	*clefC3	*clefC1
*mclefF4	*	*mclefG2	*mclefF4	*mclefG2	*mclefF4	*mclefGv2	*mclefG2	*mclefG2
*k[b-e-]	*	*k[b-e-]	*k[b-e-]	*k[b-e-]	*k[b-e-]	*k[b-e-]	*k[b-e-]	*k[b-e-]
*B-:	*	*B-:	*B-:	*B-:	*B-:	*B-:	*B-:	*B-:
*M4/4	*	*M4/4	*M4/4	*M4/4	*M4/4	*M4/4	*M4/4	*M4/4
*met(c)	*	*met(c)	*met(c)	*met(c)	*met(c)	*met(c)	*met(c)	*met(c)
*MM180	*	*MM180	*MM180	*MM180	*MM180	*MM180	*MM180	*MM180
*	*above	*	*	*	*	*	*	*
*	*slash	*	*	*	*	*	*	*
*	*	*	*^	*^	*	*	*	*
=1	=1	=1	=1	=1	=1	=1	=1	=1	=1	=1
2G	.	2g	2B-	2G	2g	2d	2G	2B-	2d	2g
=2	=2	=2	=2	=2	=2	=2	=2	=2	=2	=2
2E-	.	2g	1B-	2E-	2g	2e-	2E-	2B-	2e-	2g
2D	6	2b-	.	2D	2b-	2f	2D	2B-	2f	2b-
=3	=3	=3	=3	=3	=3	=3	=3	=3	=3	=3
2C	6	2a	2c	2C	2a	2e-	2C	2c	2e-	2a
2D	6	2f	2B-	2D	2f	2d	2D	2B-	2d	2f
=4	=4	=4	=4	=4	=4	=4	=4	=4	=4	=4
2BB-	6	2g	2.G	2BB-	2g	2d	2BB-	2d	(4d	2g
.	.	.	.	.	.	.	.	.	2g)	.
2AA	7	2a	.	2AA	2a	2c	2AA	2c	.	2a
.	#6\	.	4F#X	.	.	.	.	.	4f#X	.
=5	=5	=5	=5	=5	=5	=5	=5	=5	=5	=5
2GG	5	2b-	2G	2GG	2b-	4d	2GG	(4d	2g	2b-
.	nr6	.	.	.	.	4en	.	4e)	.	.
*	*	*	*	*	*	*^	*	*	*	*
2AA	6	2a	[2Fni	2AA	2a	2fni	2c\	2AA	2c	[2fni	2a
=6	=6	=6	=6	=6	=6	=6	=6	=6	=6	=6	=6
2BB-	6 5	1g	2F]	2BB-	1g	2d	1r	(2BB-	(2d	(2f]	1g
2C	n	.	2En	2C	.	2c	.	2C)	4c	2en)	.
.	.	.	.	.	.	.	.	.	4B-)	.	.
=7	=7	=7	=7	=7	=7	=7	=7	=7	=7	=7	=7
*	*	*	*	*	*	*	*	*^	*	*	*
2FF	.	2f	2F	2FF	2f	2c	2A\	2F	2FF	2A	2f	2f
*	*	*	*	*	*	*v	*v	*	*	*	*	*
*	*	*	*	*	*	*	*v	*v	*	*	*
4F	.	2a	4ryy	4F	2c	2f	(4F	2c	2f	2a
4E-	.	.	4ryy	4E-Xi	.	.	4E-)	.	.	.
=8	=8	=8	=8	=8	=8	=8	=8	=8	=8	=8
2D	6	2b-	2B-	2D	2b-	2f	2D	2B-	2f	2b-
2C	6	2cc	2A	2C	2cc	2e-	2C	2A	2e-	2cc
=9	=9	=9	=9	=9	=9	=9	=9	=9	=9	=9
2BB-	.	2dd	2B-	2BB-	2dd	2f	2BB-	2F	2d	2dd
2G	nr6	2b-	2B-	2G	2b-	2en	2G	2B-	2en	2b-
=10	=10	=10	=10	=10	=10	=10	=10	=10	=10	=10
2F	.	2a	2c	2F	2a	2f	2F	2c	2f	2a
2En	6	2g	2c	2En	2g	2g	2En	2c	2g	2g
=11	=11	=11	=11	=11	=11	=11	=11	=11	=11	=11
2E-Xi	2	2a	2c	2E-Xi	2a	1f	2E-Xi	2c	2f	2a
2D	6	2b-	[2B-	2D	2b-	.	2D	[2B-	2f	2b-
=12	=12	=12	=12	=12	=12	=12	=12	=12	=12	=12
2E-	6 5	1cc	2B-]	2E-	1cc	2g	(2E-	(2B-]	(2g	1cc
2F	.	.	2A	2F	.	2f	2F)	2A)	2f)	.
=13	=13	=13	=13	=13	=13	=13	=13	=13	=13	=13
*	*	*	*	*	*	*^	*	*	*	*
2BB-	.	2b-	2B-	2BB-	2b-	2f	2d\	2BB-	2B-	2d	2b-
*	*	*	*	*	*	*v	*v	*	*	*	*
2En	5	2b-	2c	2En	2b-	2g	2En	2c	2g	2b-
=14	=14	=14	=14	=14	=14	=14	=14	=14	=14	=14
2F	.	2a	2c	2F	2a	2f	2F	2c	2f	2a
2C#X	7 5	2b-	2ryy	2C#X	2en	2g	2C#X	2e	2g	2b-
=15	=15	=15	=15	=15	=15	=15	=15	=15	=15	=15
2D	5	2a	2A	2D	2a	2f	2D	2A	2f	2a
2D	6	2f	2B-	2D	2f	2f	2D	2B-	2f	2f
=16	=16	=16	=16	=16	=16	=16	=16	=16	=16	=16
2E-	.	2g	2B-	2E-	2g	1e-	2E-	2B-	2e-	2g
2C	6	2a	2c	2C	2a	.	2C	2c	2e-	2a
=17	=17	=17	=17	=17	=17	=17	=17	=17	=17	=17
2D	6	2b-	2B-	2D	2b-	2f	2D	2B-	2f	2b-
2G	.	2b-	[2B-	2G	2b-	2d	2G	[2B-	2d	2b-
=18	=18	=18	=18	=18	=18	=18	=18	=18	=18	=18
2E-	6 5	1cc	2B-]	2E-	1cc	2g	(2E-	(2B-]	(2g	1cc
2F	.	.	4A	2F	.	2f	2F)	2A)	2f)	.
.	.	.	4e-	.	.	.	.	.	.	.
=19	=19	=19	=19	=19	=19	=19	=19	=19	=19	=19
2BB-	.	2b-	1ryy	2BB-	2d	2f	2BB-	2B-	2d	2b-
*	*	*	*	*	*	*	*^	*	*	*
2BB-	6	2dd	.	2BB-	2d	2g	2B-	2BB-	2B-	2g	2dd
=20	=20	=20	=20	=20	=20	=20	=20	=20	=20	=20	=20
2FF#X	-7 5	2cc	2ryy	2FF#X	2e-	2a	2F#X	2FF#X	2A	2e-	2cc
*	*	*	*	*	*	*^	*	*	*	*	*
2GG	.	2b-	[2G	2GG	2b-	2g	2d\	2G	2GG	[2G	2d	2b-
*	*	*	*	*	*	*	*	*v	*v	*	*	*
=21	=21	=21	=21	=21	=21	=21	=21	=21	=21	=21	=21
2C	6 5	1a	2G]	2C	1a	2e-	1r	(2C	(2G]	(2e-	1a
2D	#	.	2F#X	2D	.	2d	.	2D)	2F#X)	4d	.
.	.	.	.	.	.	.	.	.	.	4c)	.
=22	=22	=22	=22	=22	=22	=22	=22	=22	=22	=22	=22
2GG	.	2g	2G	2GG	2g	2d	2B-\	2GG	2G	2B-	2g
*	*	*	*v	*v	*	*	*	*	*	*	*
*	*	*	*	*v	*v	*v	*	*	*	*
==	==	==	==	==	==	==	==	==
*-	*-	*-	*-	*-	*-	*-	*-	*-
!!!system-decoration: {(s1,s2,s3,s4)}{(s5,s6)}{(s7,s8)}
!!!RDF**kern: i = editorial accidental, paren
!!!RDF**kern: > = above
!!!RDF**kern: < = below
!!!AGN: chorale
!!!EED: Derek Remeš
!!!EED2: Victor Phan
!!!END: 2023/11/28
!!!ENC: Wolfgang Drescher
!!!EEV: 2023/12/12
!!!title: @{ONM}. @{OTL}
!!!verovio: mnumInterval 1